X:1
T:Mon coeur eslit pour soy
T:Thomas Champion
T:Source : Livre X de 26 chansons nouvelles à 4 parties---Paris---N.du Chemin---1552. Editor : André Vierendeels (15/04/18) Notes : Original clefs : C1, C2, C3, F4 Original note values have been halved Editorial accidentals above the staff Square brackets indicate ligatures Composer called "Mithou" in the part books 
T:Mon coeur eslit pour soy
T:©
T:©
T:©
C:Thomas Champion
Z:©
%%score [ 1 2 3 4 ]
L:1/8
Q:1/4=120
M:2/2
K:C
V:1 treble nm="Soprano" snm="S"
V:2 treble nm="Alto" snm="A"
V:3 treble-8 nm="Tenor" snm="T"
V:4 bass nm="Bass" snm="B"
V:1
 c6 c2 | B4 G2 E2 | G3 A B2 c2 | d3 c BA c2- | c2 BA G4 | z2 E2 G3 A | B3 c dB c2- |"^#" cB A4 G2 | %8
w: Mon coeur|es- lit pour|soy la mar- gue-|ri- * * * *|* * * te,|mon coeur es-|lit pour soy la mar-|* gue- ri _|
 A4 z2 A2 | A2 A2 G4 | z2 G2 G2 G2 | c4 A4 | G8 | z2 c2 c2 c2- | c2 BA B2 B2 | d2 d2 cBAG | %16
w: te, à|mon ad- vis|ne sçau- rois|mieulx choi-|sir|ro- se, ne|_ _ _ fleur: dont|si la puis _ _ _|
 A2 G4 F2 | G2 E4 E2 | A4 G2 G2- | G2 G2 c4 | B2 G2 G2 F2 | EFGA B2 c2- | c2 BA B2 c2 | %23
w: _ sai- *|sir, gar- der|la veulx: gar-|* der la|veulx, car el- le|le _ _ _ _ me-|* * * * ri-|
"^#" BA A4 G2 | A4 z2 E2- | E2 E2 A4 | G2 G4 G2 | c4 B2 G2 | G2 F2 EFGA | B2 c4 BA | B2 c2 BA A2- | %31
w: |te, gar-|* der la|veulx, gar- der|la veulx, car|el- le le _ _ _|_ me- * *|* ri- * * *|
"^#" A2 G2 A4- | A8 |] %33
w: * * te.|_|
V:2
 A6 G2 | G4 E4 | z2 E2 D2 C2 | G2 FE D2 E2- | E2 D2 E4 | z2 E2 D2 C2 | G2 FE D2 E2- | EC D2 E4 | %8
w: Mon coeur|es- lit|pour soy la|mar- * * * gue-|* ri- te,|pour soy la|mar- * * * gue-|* * ri- te,|
 z2 E2 F2 E2- | E2 D2 E2 B,2 | B,2 B,2 EDCD | EFGE F4 | D3 C/D/ E2 E2 | E4 C4 | G6 G2 | %15
w: à mon ad-|* vis ne sçau-|rois mieulx _ _ _ _|_ _ _ _ _|choi- * * sir, ro-|se, ne|fleur: dont|
 A2 A2 A2 F2- | FEDC D4 | D2 C4 C2 | E4 E2 E2- | E2 E2 G4 | G2 E2 D3 C | B,4 z2 CD | EF G2 G2 G,2 | %23
w: si la puis sai-||sir, gar- der|la veulx: gar-|* der la|veulx, gar- der la|veulx, car _|_ _ e- le le|
 A,B,CD E2 E2 | C4 z2 C2 | E4 E4 | E2 E4 E2 | G4 G3 F/E/ | D3 C B,4 | z2 CD EF G2 | G2 G,2 A,B,CD | %31
w: me- * * * * ri-|te, gar-|der la|veulx, gar- der|la veulx, _ _|_ _ _|car _ _ _ el-|le le me- * * *|
"^#" E2 E2 C4- | C8 |] %33
w: * ri- te.|_|
V:3
 e6 e2 | d4 c2 BA | G2 E2 G2 A2 | B3 c d2 G2 | A4 B2 E2 | G3 A B2 c2 | d3 c B2 AG | A4 B4 | %8
w: Mon coeur|es- lit pour _|soy la mar- gue-|ri- * * *|* te, pour|soy _ _ la|mar- * * gue- *|ri- *|
 A2 c2 cBAG | A2 A2 B2 G2 | G2 G2 c3 B | A2 G2 A2 c2- | c2 B2 c4 | z2 e2 e4 | e2 dc d2 d2 | %15
w: te, à mon _ _ _|_ ad- vis ne|sçau- rois mieulx _|_ _ _ _|* choi- sir,|ro- se,|ne _ _ fleur: dont|
 f2 f2 e2 c2- | cBAG A4 | G2 G4 G2 | c4 B2 B2- | B2 B2 e4 | d2 c2 B2 A2 | GABc d2 ef | %22
w: si la puis sai-||sir, gar- der|la veulx: gar-|* der la|veulx, car el- le|le _ _ _ _ me- *|
 g2 fe d2 e2 | dcBA B4 | A2 A4 G2 | c8 | B2 B4 B2 | e4 d2 c2 | B2 A2 GABc | d2 ef g2 fe | %30
w: ri- * * * *||tr, gar- der|la|veulx, gar- der|la veulx, car|el- le le _ _ _|_ me- * * * *|
 d2 e2 dcBA | B4 A4- | A8 |] %33
w: * ri- * * * *|* te.|_|
V:4
 A,,6 C,2 | G,,4 C,4 | z2 C,2 B,,2 A,,2 | G,,2 G,4 F,E, | F,4 E,4 | z2 C,2 B,,2 A,,2 | %6
w: Mon coeur|es- lit|pour soy la|mar- gue- ri- *|* te,|pour soy la|
 G,,2 G,4 F,E, | F,4 E,4 | A,,2 A,2 F,4 | F,4 E,4- | E,4 C,4 | C,2 C,2 F,4 |"^#" G,4 C,2 C2 | %13
w: mar- gue- * *|ri- *|te, à mon|ad- vis|_ ne|sçau- rois mieulx|choi- sir, ro-|
 C4 A,4 | G,4 z2 G,2 | D,E,F,G, A,2 A,2 | F,2 G,2 D,4 | G,,2 C,4 C,2 | A,,4 E,2 E,2- | %19
w: se, ne|fleur: dont|si _ _ _ _ la|puis sai- *|sir, gar- der|la velx: gar-|
 E,2 E,2 C,4 | G,2 C,2 D,2 D,2 | E,2 E,2 D,2 C,2- | C,D,E,F, G,2 F,E, | F,4 E,4 | A,,4 z2 C,2- | %25
w: * der la|veulx, car el- le|le me- ri- *|||te, gar-|
 C,2 C,2 A,,4 | E,2 E,4 E,2 | C,4 G,2 C,2 | D,2 D,2 E,2 E,2 | D,2 C,3 D, E,F, | G,2 F,E, F,4 | %31
w: * der la|veulx, gar- der|la veulx, car|el- le le me-|ri- * * * *||
 E,4 A,,4- | A,,8 |] %33
w: * te.|_|

